svg/quote-marks-patterned.svg

<svg xmlns="http://www.w3.org/2000/svg" viewBox="0 0 44.503 58"><path d="M11.51 54.97l29.704-29.705c-.267-.416-.55-.817-.844-1.207l-30.14 30.14c.418.274.846.527 1.28.772zm4.29 1.862l27.426-27.427c-.177-.503-.367-.996-.577-1.473l-28.38 28.37c.5.198 1.01.367 1.522.53zm3.292.808c.6.1 1.204.18 1.813.237L44.353 34.43c-.066-.61-.154-1.206-.263-1.79l-24.998 25zm8.205-.002l16.886-16.886c.128-.755.212-1.525.258-2.31l-19.48 19.48c.798-.056 1.578-.147 2.34-.284zM42.1 46.935l-8.558 8.56c3.653-1.943 6.63-4.917 8.56-8.56zm-34.187 5.48L38.448 21.88c-.348-.338-.706-.665-1.078-.974L6.85 51.426c.343.347.7.67 1.063.988zm-2.953-3.2l30.007-30.007c-.43-.26-.87-.503-1.32-.73L4.102 48.022c.27.416.565.802.858 1.192zm-2.313-3.84l28.1-28.1c-.522-.17-1.055-.32-1.595-.454L2.01 43.97c.194.49.417.95.637 1.412zM1.01 40.863l24.627-24.628c-.643-.058-1.294-.09-1.953-.097L.63 39.19c.112.57.238 1.13.38 1.672zM34.042 1.677L35.66.06c-.748.035-1.486.092-2.217.166L31.38 2.29c.86-.245 1.75-.445 2.662-.613zM.04 33.627c.018.665.03 1.333.083 1.97l19.134-19.134c-.857.135-1.72.318-2.59.538L.042 33.63zm.18-4.277l16.115-16.117c1.462-2.59 4.08-5.373 7.622-7.622l4.607-4.6c-.94.208-1.863.45-2.77.72L.66 26.858c-.185.824-.334 1.655-.44 2.49zm18.746-24.9c-1.92.982-3.724 2.102-5.394 3.342L6.004 15.36c-1.218 1.656-2.27 3.392-3.136 5.186L18.966 4.45z"/></svg>

<?xml version="1.0" encoding="utf-8"?>
<!-- Generator: Adobe Illustrator 19.1.0, SVG Export Plug-In . SVG Version: 6.00 Build 0)  -->
<!DOCTYPE svg PUBLIC "-//W3C//DTD SVG 1.1//EN" "http://www.w3.org/Graphics/SVG/1.1/DTD/svg11.dtd">
<svg version="1.1" id="Layer_1" xmlns="http://www.w3.org/2000/svg" xmlns:xlink="http://www.w3.org/1999/xlink" x="0px" y="0px"
	 viewBox="0 0 44.503 58" enable-background="new 0 0 44.503 58" xml:space="preserve">
<g>
	<path fill="#000000" d="M11.509,54.97l29.705-29.705c-0.267-0.416-0.549-0.817-0.844-1.207L10.231,54.197
		C10.648,54.472,11.076,54.725,11.509,54.97z"/>
	<path fill="#000000" d="M15.799,56.832l27.427-27.427c-0.177-0.503-0.367-0.996-0.577-1.473L14.277,56.303
		C14.776,56.5,15.286,56.669,15.799,56.832z"/>
	<path fill="#000000" d="M19.092,57.64c0.6,0.101,1.204,0.18,1.813,0.237l23.448-23.448c-0.066-0.609-0.154-1.205-0.263-1.788
		L19.092,57.64z"/>
	<path fill="#000000" d="M27.297,57.638l16.886-16.886c0.128-0.755,0.212-1.525,0.258-2.309L24.961,57.923
		C25.752,57.866,26.532,57.775,27.297,57.638z"/>
	<path fill="#000000" d="M42.101,46.935l-8.559,8.559C37.195,53.552,40.173,50.578,42.101,46.935z"/>
	<path fill="#000000" d="M7.913,52.414l30.535-30.535c-0.348-0.337-0.706-0.664-1.078-0.973L6.85,51.426
		C7.193,51.773,7.551,52.096,7.913,52.414z"/>
	<path fill="#000000" d="M4.96,49.215l30.007-30.007c-0.43-0.259-0.869-0.503-1.32-0.731L4.102,48.023
		C4.372,48.439,4.667,48.825,4.96,49.215z"/>
	<path fill="#000000" d="M2.647,45.376l28.1-28.1c-0.522-0.172-1.055-0.322-1.595-0.455L2.009,43.964
		C2.204,44.453,2.427,44.913,2.647,45.376z"/>
	<path fill="#000000" d="M1.009,40.862l24.628-24.628c-0.643-0.058-1.294-0.09-1.953-0.097L0.63,39.191
		C0.742,39.761,0.868,40.319,1.009,40.862z"/>
	<path fill="#000000" d="M34.042,1.677l1.618-1.618c-0.748,0.036-1.486,0.093-2.217,0.167L31.38,2.289
		C32.239,2.045,33.129,1.845,34.042,1.677z"/>
	<path fill="#000000" d="M0.041,33.628c0.017,0.664,0.03,1.332,0.082,1.969l19.134-19.134c-0.857,0.135-1.721,0.318-2.589,0.538
		L0.041,33.628z"/>
	<path fill="#000000" d="M0.219,29.349l16.116-16.116c1.462-2.59,4.079-5.373,7.622-7.622l4.607-4.607
		c-0.941,0.208-1.863,0.45-2.77,0.719L0.661,26.856C0.475,27.683,0.326,28.514,0.219,29.349z"/>
	<path fill="#000000" d="M18.966,4.449c-1.919,0.983-3.724,2.103-5.394,3.343l-7.568,7.568c-1.218,1.656-2.271,3.392-3.136,5.186
		L18.966,4.449z"/>
</g>
</svg>
